!!!!SEGMENT: Ric2017-Ego_sum_qui_sum.krn
!!!id: Ric2017
!!!AGN: Motet
!!!SCT: Elzinga (1999)
!!!voices: 5
!!!COM: Jean Richafort
!!!OTL: Ego sum qui sum
**kern	**kern	**kern	**kern	**kern
*part5	*part4	*part3	*part2	*part1
*staff5	*staff4	*staff3	*staff2	*staff1
*I"Bassus	*I"Tenor	*I"Altus	*I"Superius II	*I"Superius I
*I'B	*I'T	*I'A	*I'S. II	*I'S. I
*clefF4	*clefGv2	*clefGv2	*clefG2	*clefG2
*k[b-]	*k[b-]	*k[b-]	*k[b-]	*k[b-]
*F:	*F:	*F:	*F:	*F:
*M3/1	*M3/1	*M3/1	*M3/1	*M3/1
*met(O)	*met(O)	*met(O)	*met(O)	*met(O)
!!section: Prima pars: Ego sum qui sum
!!!OMD: Prima pars: Ego sum qui sum
=1	=1	=1	=1	=1
1%3r	1%3r	1%3r	1%3r	0cc
.	.	.	.	1cc
=2	=2	=2	=2	=2
1%3r	1%3r	1%3r	1%3r	1a
.	.	.	.	1dd
.	.	.	.	2.cc
.	.	.	.	4b-y
=3	=3	=3	=3	=3
1%3r	1%3r	1r	0cc	4a
.	.	.	.	4g
.	.	.	.	1a
.	.	0f	.	.
.	.	.	.	4g
.	.	.	.	4f
.	.	.	1cc	2.a
.	.	.	.	4b-y
=4	=4	=4	=4	=4
1%3r	1%3r	1f	1a	2cc
.	.	.	.	2.dd
.	.	1d	0dd	.
.	.	.	.	4cc
.	.	.	.	4b-y
.	.	.	.	4a
.	.	[1g	.	1b-y
=5	=5	=5	=5	=5
1r	0c	1g]	2.cc	1g
.	.	.	4b-y	.
0F	.	1.f	4a	2r
.	.	.	4g	.
.	.	.	2a	1cc
.	1c	.	1f	.
.	.	4e	.	2cc
.	.	4d	.	.
=6	=6	=6	=6	=6
1F	1A	1c	2r	4cc
.	.	.	.	4b-y
.	.	.	2f	4a
.	.	.	.	4g
1D	0d	2r	1a	1.f
.	.	2F	.	.
1BB-y	.	1B-y	1b-y	.
.	.	.	.	2g
=7	=7	=7	=7	=7
0F	2.c	2A	1cc	0a
.	.	2F	.	.
.	4B-y	.	.	.
.	2A	2.c	2f	.
.	4G	.	2.cc	.
.	4F	4B-y	.	.
2.F	1c	4A	.	2r
.	.	4G	4b-y	.
.	.	[2A	4a	2f
4E	.	.	4g	.
=8	=8	=8	=8	=8
4D	1F	2A]	1a	2.ff
4C	.	.	.	.
1D	.	2F	.	.
.	.	.	.	4ee
.	2r	2A	2r	4dd
.	.	.	.	4cc
2BB-y	2F	2B-y	2f	1dd
[1F	2.A	2.c	2.f	.
.	.	.	.	[2cc
.	4B-y	4d	4g	.
=9	=9	=9	=9	=9
2F]	2c	4e	2a	2cc]
.	.	4f	.	.
2BB-y	1d	1g	1b-y	2b-y
1F	.	.	.	1cc
.	1c	1f	1a	.
1G	.	.	.	2r
.	2B-y	2e	2g	2g
=10	=10	=10	=10	=10
0.F	0c	1f	[0.a	1cc
.	.	2r	.	2cc
.	.	2c	.	2cc
.	1r	1f	.	2dd
.	.	.	.	2cc
=11	=11	=11	=11	=11
1r	2r	2f	1a]	2a
.	2F	2f	.	2.cc
2r	1c	2g	1r	.
.	.	.	.	4b-y
2C	.	2e	.	4a
.	.	.	.	4g
1F	2c	[1f	1r	[1a
.	2c	.	.	.
=12	=12	=12	=12	=12
2F	2d	1f]	1%3r	1a]
2F	2c	.	.	.
2G	2B-y	1r	.	1r
2E	2.c	.	.	.
1F	.	1r	.	1r
.	4B-y	.	.	.
.	4A	.	.	.
.	4G	.	.	.
=13	=13	=13	=13	=13
2r	1A	1%3r	1%3r	1%3r
2C	.	.	.	.
2D	2r	.	.	.
2F	2F	.	.	.
2E	2G	.	.	.
2D	2B-y	.	.	.
=14	=14	=14	=14	=14
1C	2A	1%3r	1%3r	1%3r
.	2G	.	.	.
2r	4F	.	.	.
.	4G	.	.	.
2F	4A	.	.	.
.	4F	.	.	.
2E	2G	.	.	.
[2F	[2A	.	.	.
=15	=15	=15	=15	=15
4F]	4A]	1%3r	1%3r	1%3r
4G	4B-y	.	.	.
4A	4c	.	.	.
4F	4A	.	.	.
2G	2B-y	.	.	.
2.A	2c	.	.	.
.	1F	.	.	.
4G	.	.	.	.
[2F	.	.	.	.
=16	=16	=16	=16	=16
2F]	1G	1r	2r	1%3r
2E	.	.	2g	.
0F	2.A	1c	1cc	.
.	4G	.	.	.
.	4A	1f	2cc	.
.	4B-y	.	.	.
.	4c	.	2cc	.
.	4A	.	.	.
=17	=17	=17	=17	=17
1%3r	2B-y	2f	2dd	2r
.	2A	2f	2cc	2f
.	1G	2d	2b-y	2g
.	.	2e	4a	2b-y
.	.	.	4g	.
.	1r	2f	1cc	2a
.	.	2c	.	2g
=18	=18	=18	=18	=18
1r	1%3r	2d	2r	4f
.	.	.	.	4g
.	.	2f	2f	4a
.	.	.	.	4b-y
1r	.	2e	2g	4cc
.	.	.	.	4f
.	.	2d	2b-y	1ff
2r	.	1c	2a	.
2C	.	.	2g	2ee
=19	=19	=19	=19	=19
2D	1r	2r	2f	1ff
1F	.	2c	2.a	.
.	1F	2d	.	2r
.	.	.	4g	.
4E	.	2f	4a	1cc
4D	.	.	4b-y	.
2C	2G	2e	2cc	.
2BB-y	2B-y	2d	[2f	2dd
=20	=20	=20	=20	=20
1C	2A	0.c	2f]	2ee
.	2G	.	2e	1cc
0F	1F	.	0f	.
.	.	.	.	2.a
.	2r	.	.	.
.	.	.	.	4b-y
.	2F	.	.	4cc
.	.	.	.	4a
=21	=21	=21	=21	=21
1%3r	2G	1r	2r	2b-y
.	2A	.	1f	2cc
.	1B-y	1r	.	1dd
.	.	.	2g	.
.	2.A	2r	2a	[1cc
.	.	[2F	2f	.
.	4B-y	.	.	.
=22	=22	=22	=22	=22
1%3r	4c	2F]	2a	2cc]
.	4A	.	.	.
.	2d	2G	2b-y	2b-y
.	4c	2A	2.cc	2a
.	4B-y	.	.	.
.	4A	2.F	.	2.cc
.	4G	.	4b-y	.
.	[1F	.	4a	.
.	.	4G	4g	4b-y
.	.	4A	[2cc	4a
.	.	4B-y	.	4g
=23	=23	=23	=23	=23
1r	1F]	2c	4cc]	2.f
.	.	.	4b-y	.
.	.	1d	4a	.
.	.	.	4g	4g
2r	1r	.	4f	1a
.	.	.	4e	.
1F	.	1c	4d	.
.	.	.	4c	.
.	1r	.	1d	1r
2G	.	2Bni	.	.
=24	=24	=24	=24	=24
2A	1r	1c	2r	1%3r
1F	.	.	1c	.
.	1F	1r	.	.
4E	.	.	2d	.
4D	.	.	.	.
2C	2G	1c	2e	.
2F	2A	.	2c	.
=25	=25	=25	=25	=25
2.BB-y	2F	1d	2.f	1r
.	1B-y	.	.	.
4C	.	.	4e	.
2D	.	1.f	2d	1f
2F	2A	.	2d	.
1C	1G	.	[1c	2.g
.	.	4e	.	.
.	.	4d	.	4f
=26	=26	=26	=26	=26
2r	1%3r	2e	1c]	2g
2F	.	2f	.	2a
2G	.	1.d	1r	2.b-y
1B-y	.	.	.	.
.	.	.	.	8aL
.	.	.	.	8gJ
.	.	.	1r	2f
4A	.	4c	.	[2g
4G	.	4B-y	.	.
=27	=27	=27	=27	=27
2A	1r	2c	1f	2g]
2B-y	.	2d	.	1f
1G	2r	1B-y	2g	.
.	2G	.	1b-y	2e
[1F	1A	1c	.	[1f
.	.	.	4a	.
.	.	.	4g	.
=28	=28	=28	=28	=28
2F]	1.c	2F	1a	1f]
2A	.	1f	.	.
0G	.	.	1b-y	0g
.	4B-y	4e	.	.
.	4A	4d	.	.
.	1B-y	1e	1g	.
=29	=29	=29	=29	=29
0F	1c	1.f	1.a	1r
.	1A	.	.	1cc
.	.	2e	4g	.
.	.	.	4f	.
[1BB-y	[1B-y	[1d	1f	1dd
=30	=30	=30	=30	=30
1BB-]	1B-]	1d]	2r	1.ff
.	.	.	2d	.
1.C	[0G	1c	2e	.
.	.	.	2f	4ee
.	.	.	.	4dd
.	.	2r	[1g	2ee
2BB-y	.	2d	.	[2dd
=31	=31	=31	=31	=31
1C	1G]	2.e	2g]	2dd]
.	.	.	4f	1cc
.	.	4f	4e	.
1G	2r	1g	1d	.
.	2G	.	.	2bni
1r	4A	2r	2c	1cc
.	4B-y	.	.	.
.	4c	2c	2cc	.
.	4A	.	.	.
=32	=32	=32	=32	=32
1r	2B-y	2d	2b-y	2r
.	2c	2e	2g	2g
2r	1F	2.f	1a	1cc
2F	.	.	.	.
.	.	4e	.	.
2G	1r	2d	1r	2b-y
2E	.	2e	.	4a
.	.	.	.	4g
=33	=33	=33	=33	=33
1F	2r	1c	2r	1a
.	2.A	.	2a	.
2r	.	2r	1cc	2r
.	4B-y	.	.	.
2F	4c	2f	.	2a
.	4A	.	.	.
2G	2B-y	2d	2b-y	2g
2E	2c	2e	4a	2g
.	.	.	4g	.
=34	=34	=34	=34	=34
1.F	1A	2.c	2.a	2f
.	.	.	.	1ff
.	.	4B-y	4g	.
.	1c	2A	4f	.
.	.	.	4e	.
2C	.	2G	2.g	2ee
2D	2B-y	4F	.	2dd
.	.	4G	4c	.
2F	2A	4A	[2f	[2cc
.	.	4B-y	.	.
=35	=35	=35	=35	=35
1C	1G	0c	2f]	4cc]
.	.	.	.	4dd
.	.	.	2e	2ee
1F	0F	.	[0f	2.a
.	.	.	.	4g
2r	.	2r	.	4a
.	.	.	.	4b-y
[2F	.	[2c	.	[2cc
=36	=36	=36	=36	=36
2F]	1%3r	2c]	1f]	4cc]
.	.	.	.	4b-y
2F	.	2c	.	1a
1B-y	.	1d	1r	.
.	.	.	.	2g
1A	.	1e	2r	1a
.	.	.	[2c	.
=37	=37	=37	=37	=37
0F	1r	1f	2c]	2r
.	.	.	2c	1cc
.	2r	2r	2.f	.
.	1F	1c	.	2cc
.	.	.	4g	.
1r	.	.	4a	1ff
.	.	.	4b-y	.
.	2F	2c	[2a	.
=38	=38	=38	=38	=38
1%3r	1B-y	1d	2a]	1dd
.	.	.	2g	.
.	1A	1e	2a	1cc
.	.	.	2.cc	.
.	1F	[1f	.	2r
.	.	.	4b-y	.
.	.	.	4a	[2cc
.	.	.	4g	.
=39	=39	=39	=39	=39
1%3r	1%3r	1f]	2f	2cc]
.	.	.	2a	2cc
.	.	1r	2b-y	2dd
.	.	.	2cc	2ee
.	.	1r	2a	2.ff
.	.	.	[2b-y	.
.	.	.	.	4ee
=40	=40	=40	=40	=40
1%3r	1%3r	1%3r	4b-]	4dd
.	.	.	4a	4cc
.	.	.	4g	1dd
.	.	.	4f	.
.	.	.	1g	.
.	.	.	.	4cc
.	.	.	.	4b-y
.	.	.	1f	1a
=41	=41	=41	=41	=41
1%3r	1r	1%3r	2r	1.cc
.	.	.	1f	.
.	1r	.	.	.
.	.	.	2f	2cc
.	2r	.	2b-y	2dd
.	[2F	.	2a	2cc
=42	=42	=42	=42	=42
1%3r	2F]	1%3r	0f	4a
.	.	.	.	4b-y
.	2F	.	.	4cc
.	.	.	.	4a
.	2B-y	.	.	2b-y
.	2A	.	.	2.cc
.	1F	.	2r	.
.	.	.	.	4b-y
.	.	.	2c	4a
.	.	.	.	4g
=43	=43	=43	=43	=43
1%3r	2r	2r	4d	0f
.	.	.	4e	.
.	1F	1c	4f	.
.	.	.	4g	.
.	.	.	2.a	.
.	2F	2c	.	.
.	.	.	4b-y	.
.	2B-y	2d	2g	1r
.	2A	2c	4f	.
.	.	.	4g	.
=44	=44	=44	=44	=44
1r	0F	2.A	4a	1%3r
.	.	.	4b-y	.
.	.	.	2cc	.
.	.	4B-y	.	.
2r	.	2c	2a	.
1F	.	2.A	2.cc	.
.	1r	.	.	.
.	.	4F	4b-y	.
2F	.	[2f	[2a	.
=45	=45	=45	=45	=45
1B-y	1r	2f]	2a]	1r
.	.	4e	2g	.
.	.	4d	.	.
1A	2r	1e	0a	1r
.	2.c	.	.	.
[1F	.	[1f	.	2r
.	4c	.	.	.
.	2c	.	.	[2a
=46	=46	=46	=46	=46
0F]	2c	0.f_	1%3r	4a]
.	.	.	.	4a
.	2d	.	.	2a
.	2c	.	.	2a
.	2A	.	.	2cc
2r	2B-y	.	.	2b-y
[2F	[2c	.	.	2a
=47	=47	=47	=47	=47
4F]	4c]	1f]	1%3r	1.cc
4F	4B-y	.	.	.
2F	4A	.	.	.
.	4G	.	.	.
2F	2A	1r	.	.
2G	2B-y	.	.	2b-y
2F	2c	2r	.	[1a
[2D	[2d	[2f	.	.
=48	=48	=48	=48	=48
4D]	2d]	4f]	1%3r	1a]
4E	.	4f	.	.
2F	1c	2f	.	.
1G	.	2d	.	1r
.	2B-y	2e	.	.
[1F	[1c	[1f	.	2r
.	.	.	.	[2cc
=49	=49	=49	=49	=49
0F]	1c]	2f]	2r	4cc]
.	.	.	.	4cc
.	.	4e	2.a	2cc
.	.	4d	.	.
.	1r	2c	.	2cc
.	.	.	4a	.
.	.	2.f	2a	2dd
1r	1r	.	2a	2cc
.	.	4e	.	.
.	.	2f	2cc	2a
=50	=50	=50	=50	=50
1%3r	2r	2g	2b-y	2b-y
.	2.F	1f	2a	2.cc
.	.	.	1.cc	.
.	4F	.	.	4b-y
.	2F	2e	.	4a
.	.	.	.	4g
.	2F	1d	.	2a
.	2G	.	2b-y	2b-y
=51	=51	=51	=51	=51
2r	1A	2c	0a	2cc
2.F	.	2.f	.	4f
.	.	.	.	4g
.	1r	.	.	4a
4F	.	4e	.	4b-y
2F	.	4d	.	1cc
.	.	4c	.	.
2F	1r	1d	1r	.
2G	.	.	.	2bni
=52	=52	=52	=52	=52
2A	1F	1c	2r	0cc
1F	.	.	2f	.
.	2.A	2r	2f	.
4E	.	2F	2f	.
4D	4B-y	.	.	.
2C	2c	4G	4e	1r
.	.	4A	4c	.
2BB-y	2d	4B-y	2f	.
.	.	4G	.	.
=53	=53	=53	=53	=53
0C	1c	2A	2f	1%3r
.	.	2G	4e	.
.	.	.	4d	.
.	2r	1c	2.e	.
.	2G	.	.	.
.	.	.	4f	.
2r	1c	1r	2g	.
2C	.	.	[2a	.
=54	=54	=54	=54	=54
2D	1B-y	1r	2a]	2r
2E	.	.	2g	2g
1F	2A	2r	1a	1cc
.	2A	2c	.	.
1r	2B-y	2d	2r	1b-y
.	2G	2e	2g	.
=55	=55	=55	=55	=55
2r	1F	2f	1cc	2.a
2A	.	4r	.	.
.	.	4c	.	4g
2B-y	1r	2d	1b-y	2f
2G	.	2B-y	.	2e
1F	2r	2.c	[1a	[1f
.	[2c	.	.	.
.	.	4B-y	.	.
=56	=56	=56	=56	=56
2r	2c]	4A	0.a]	0f]
.	.	4G	.	.
1F	2c	2F	.	.
.	1A	2r	.	.
2F	.	1f	.	.
1D	[1d	.	.	1r
.	.	2f	.	.
=57	=57	=57	=57	=57
1G	1d]	2d	1%3r	1r
.	.	2.g	.	.
1C	2.c	.	.	2r
.	.	4f	.	.
.	.	4e	.	1cc
.	4B-y	4d	.	.
2r	4A	2e	.	.
.	4G	.	.	.
[2F	2A	2f	.	2cc
=58	=58	=58	=58	=58
2F]	2r	2r	1r	1a
2F	1A	2f	.	.
2D	.	2f	1r	1dd
2G	2B-y	2d	.	.
1C	2G	1e	2r	2.cc
.	2G	.	[2cc	.
.	.	.	.	4b-y
=59	=59	=59	=59	=59
1F	4A	1c	2cc]	4a
.	4G	.	.	4g
.	4A	.	2cc	2a
.	4B-y	.	.	.
1F	2c	2r	1a	2f
.	2F	2c	.	1ff
1BB-y	1B-y	2d	1dd	.
.	.	2f	.	4ee
.	.	.	.	4dd
=60	=60	=60	=60	=60
1C	0G	2e	2.cc	2.ee
.	.	1c	.	.
.	.	.	4b-y	4ff
2r	.	.	4cc	2ee
.	.	.	4b-y	.
2G	.	2B-y	4a	1dd
.	.	.	4g	.
2F	2r	1c	1a	.
2A	2F	.	.	[2cc
=61	=61	=61	=61	=61
1G	2B-y	1d	2r	2cc]
.	2G	.	1b-y	2bni
1F	2A	2r	.	1cc
.	2.F	1c	4a	.
.	.	.	4g	.
2r	.	.	2.a	2r
.	4G	.	.	.
[2F	4A	[2f	.	2cc
.	4B-y	.	4g	.
=62	=62	=62	=62	=62
2F]	1c	2f]	2a	2dd
2C	.	2e	2.g	2ee
2D	2A	1d	.	2ff
.	.	.	4f	.
2BB-y	2B-y	.	1f	2dd
1C	1G	1c	.	2ee
.	.	.	2e	[2cc
=63	=63	=63	=63	=63
[0.FFl	[0.Fl	[0.cl	[0.fl	4cc]
.	.	.	.	4b-y
.	.	.	.	4a
.	.	.	.	4g
.	.	.	.	[0al
=	=	=	=	=
00FF]	00F]	00c]	00f]	00a]
=||	=||	=||	=||	=||
*M2/1	*M2/1	*M2/1	*M2/1	*M2/1
*met(C|)	*met(C|)	*met(C|)	*met(C|)	*met(C|)
!!section: Secunda pars: Tulerunt Dominum
!!!OMD: Secunda pars: Tulerunt Dominum
1F	0r	0r	0r	0r
2F	.	.	.	.
2F	.	.	.	.
=64	=64	=64	=64	=64
2A	1r	0r	0r	0r
2B-y	.	.	.	.
2.c	1F	.	.	.
4B-y	.	.	.	.
=65	=65	=65	=65	=65
4A	2F	0r	0r	0r
4G	.	.	.	.
1F	2F	.	.	.
.	2A	.	.	.
4E	2B-y	.	.	.
4D	.	.	.	.
=66	=66	=66	=66	=66
2E	2.c	0r	0r	0r
2.F	.	.	.	.
.	4B-y	.	.	.
.	4A	.	.	.
4E	4G	.	.	.
2G	[2d	.	.	.
=67	=67	=67	=67	=67
2F	2d]	0r	0r	0r
2E	1c	.	.	.
1D	.	.	.	.
.	2Bni	.	.	.
=68	=68	=68	=68	=68
0C	1c	0r	0r	0r
.	2r	.	.	.
.	2G	.	.	.
=69	=69	=69	=69	=69
2r	2G	0r	0r	0r
2C	2G	.	.	.
2C	1c	.	.	.
2C	.	.	.	.
=70	=70	=70	=70	=70
1F	2r	0r	0r	0r
.	2c	.	.	.
2r	[1f	.	.	.
2F	.	.	.	.
=71	=71	=71	=71	=71
1.B-y	2f]	0r	0r	0r
.	2e	.	.	.
.	2d	.	.	.
2A	2c	.	.	.
=72	=72	=72	=72	=72
2G	2B-y	0r	0r	0r
2F	2.c	.	.	.
2E	.	.	.	.
.	4B-y	.	.	.
[2F	4A	.	.	.
.	4G	.	.	.
=73	=73	=73	=73	=73
4F]	2F	0r	1f	0r
4G	.	.	.	.
4A	2c	.	.	.
4F	.	.	.	.
2B-y	2d	.	2f	.
[2A	[2c	.	2f	.
=74	=74	=74	=74	=74
4A]	2c]	1r	2a	0r
4G	.	.	.	.
1F	4B-y	.	2b-y	.
.	4A	.	.	.
.	1G	1c	2.cc	.
2E	.	.	.	.
.	.	.	4b-y	.
=75	=75	=75	=75	=75
1F	1F	2c	4a	1f
.	.	.	4g	.
.	.	2c	2.a	.
1r	1r	2d	.	2f
.	.	.	4g	.
.	.	2e	4f	2f
.	.	.	4e	.
=76	=76	=76	=76	=76
0r	0r	2f	4d	2a
.	.	.	4c	.
.	.	2d	1f	2b-y
.	.	4c	.	2.cc
.	.	4B-y	.	.
.	.	4A	2e	.
.	.	4G	.	4b-y
=77	=77	=77	=77	=77
0r	0r	1F	1f	4a
.	.	.	.	4g
.	.	.	.	2.cc
.	.	2r	2r	.
.	.	.	.	4b-y
.	.	2F	2f	[2a
=78	=78	=78	=78	=78
0r	0r	2F	2f	2a]
.	.	2F	2f	4g
.	.	.	.	4f
.	.	[1c	1g	[1e
=79	=79	=79	=79	=79
0r	0r	0c_	2r	1e]
.	.	.	2g	.
.	.	.	[1cc	2r
.	.	.	.	2g
=80	=80	=80	=80	=80
0r	0r	1c]	2cc]	2g
.	.	.	2b-y	2g
.	.	2r	2a	1cc
.	.	2c	2g	.
=81	=81	=81	=81	=81
0r	0r	1.f	2a	2r
.	.	.	2.cc	2cc
.	.	.	.	[1ff
.	.	.	4b-y	.
.	.	2e	4a	.
.	.	.	4g	.
=82	=82	=82	=82	=82
0r	2r	2d	2f	2ff]
.	2c	2c	2.g	2ee
.	2.f	2B-y	.	2dd
.	.	.	4d	.
.	.	2A	[2f	2cc
.	4e	.	.	.
=83	=83	=83	=83	=83
2r	2d	2B-y	2f]	2b-y
2C	2.c	2c	2e	2g
[1F	.	4F	1f	1a
.	4B-y	4G	.	.
.	4A	4A	.	.
.	4G	4B-y	.	.
=84	=84	=84	=84	=84
2F]	2F	1c	2r	2r
2E	2G	.	2c	2cc
2D	2.A	2r	2f	2dd
2C	.	2c	2e	2ee
.	4G	.	.	.
=85	=85	=85	=85	=85
2BB-y	1B-y	1.f	2d	2ff
2BB-y	.	.	2d	2dd
[1F	1A	.	2a	4cc
.	.	.	.	4b-y
.	.	2e	2a	4a
.	.	.	.	4g
=86	=86	=86	=86	=86
1F]	2r	2d	1f	2a
.	2A	2c	.	2a
2r	2B-y	2B-y	2r	1f
2F	[2c	2A	2f	.
=87	=87	=87	=87	=87
2E	4c]	2B-y	1g	2r
.	4d	.	.	.
2C	2e	2.c	.	2cc
1F	2.A	.	1a	2.cc
.	.	4B-y	.	.
.	.	4A	.	.
.	4B-y	4G	.	4b-y
=88	=88	=88	=88	=88
2r	4c	4A	2.f	4a
.	4B-y	4F	.	4g
2F	4A	1f	.	2.a
.	4G	.	4g	.
2D	1F	.	2a	.
.	.	.	.	4g
2BB-y	.	2d	2b-y	[2dd
=89	=89	=89	=89	=89
1C	1c	2.e	2a	2dd]
.	.	.	2.g	1cc
.	.	8dL	.	.
.	.	8cJ	.	.
1G	2r	1d	.	.
.	.	.	4f	.
.	2B-y	.	2g	2bni
=90	=90	=90	=90	=90
1r	2A	2e	2a	2cc
.	2F	2f	1cc	2a
2r	1G	1d	.	[1g
2G	.	.	2bni	.
=91	=91	=91	=91	=91
2C	2c	1c	4cc	2g]
.	.	.	4b-y	.
2.F	2A	.	4a	2f
.	.	.	4g	.
.	1F	2c	2f	1f
4E	.	.	.	.
4D	.	[2d	2a	.
4C	.	.	.	.
=92	=92	=92	=92	=92
1BB-y	2.B-y	2d]	2g	2r
.	.	2d	1f	2f
.	4A	.	.	.
1C	1G	1c	.	2cc
.	.	.	2e	2cc
=93	=93	=93	=93	=93
[0F	0F	1c	0f	1.a
.	.	2r	.	.
.	.	2c	.	[2cc
=94	=94	=94	=94	=94
1F]	2r	2f	0r	4cc]
.	.	.	.	4b-y
.	2F	2f	.	1a
1r	2c	1e	.	.
.	2c	.	.	2g
=95	=95	=95	=95	=95
0r	1.A	2e	0r	2a
.	.	1f	.	1cc
.	2c	2e	.	2cc
=96	=96	=96	=96	=96
0r	2B-y	4f	0r	2dd
.	.	4e	.	.
.	1A	4d	.	2cc
.	.	4c	.	.
.	.	1d	.	2a
.	2G	.	.	2b-y
=97	=97	=97	=97	=97
0r	2A	0c	2r	2.cc
.	1F	.	1cc	.
.	.	.	.	4b-y
.	.	.	.	4a
.	.	.	.	4g
.	2F	.	2cc	[2f
=98	=98	=98	=98	=98
0r	2B-y	0r	2dd	2f]
.	2c	.	2cc	2e
.	2.d	.	2a	1f
.	.	.	2b-y	.
.	4c	.	.	.
=99	=99	=99	=99	=99
2r	4A	0r	2.cc	0r
.	4B-y	.	.	.
2C	2.c	.	.	.
.	.	.	4b-y	.
2F	.	.	4a	.
.	4B-y	.	4g	.
2F	4A	.	[2f	.
.	4G	.	.	.
=100	=100	=100	=100	=100
2D	4F	0r	2f]	0r
.	4G	.	.	.
2.F	4A	.	4e	.
.	4B-y	.	4d	.
.	2c	.	2c	.
4E	.	.	.	.
4D	[2d	.	[2f	.
4C	.	.	.	.
=101	=101	=101	=101	=101
2BB-y	2d]	0r	4f]	1r
.	.	.	4e	.
2C	1c	.	4d	.
.	.	.	4c	.
1G	.	.	1d	1g
.	2Bni	.	.	.
=102	=102	=102	=102	=102
2r	1c	2r	[0c	2g
1F	.	1f	.	2.a
.	1r	.	.	.
.	.	.	.	4g
2F	.	2f	.	4a
.	.	.	.	4b-y
=103	=103	=103	=103	=103
2E	1r	2g	1c]	2cc
2F	.	2f	.	2cc
2G	2r	2d	1r	2b-y
2C	[2c	2e	.	4a
.	.	.	.	4g
=104	=104	=104	=104	=104
1F	2c]	[0f	1r	0a
.	2c	.	.	.
2r	2d	.	2r	.
[2F	2c	.	[2cc	.
=105	=105	=105	=105	=105
2F]	2A	1f]	2cc]	1r
2BB-y	2B-y	.	2b-y	.
2F	[1c	2r	2a	1a
2A	.	[2f	2f	.
=106	=106	=106	=106	=106
1G	2c]	4f]	1g	1.b-y
.	.	4e	.	.
.	4B-y	4d	.	.
.	4A	4c	.	.
1G	1B-y	1d	1g	.
.	.	.	.	2g
=107	=107	=107	=107	=107
0C	1G	0c	[0e	[0g
.	2r	.	.	.
.	[2G	.	.	.
=108	=108	=108	=108	=108
2r	2G]	2r	0e]	1g]
1C	2G	1G	.	.
.	[1c	.	.	1r
2C	.	2G	.	.
=109	=109	=109	=109	=109
4F	2c]	4A	0r	0r
4E	.	4G	.	.
4F	2c	4A	.	.
4G	.	4B-y	.	.
[1A	4F	2c	.	.
.	4G	.	.	.
.	4A	2c	.	.
.	4B-y	.	.	.
=110	=110	=110	=110	=110
2A]	2c	2A	0r	0r
2G	1d	2B-y	.	.
2F	.	1c	.	.
2E	[2c	.	.	.
=111	=111	=111	=111	=111
1D	2c]	1F	0r	1r
.	2Bni	.	.	.
[1C	[1c	1G	.	2r
.	.	.	.	[2g
=112	=112	=112	=112	=112
0C]	1c]	2r	2r	2g]
.	.	1c	1g	2g
.	1r	.	.	[1cc
.	.	2c	2g	.
=113	=113	=113	=113	=113
0r	0r	4f	4a	2cc]
.	.	4e	4g	.
.	.	4f	4a	2cc
.	.	4g	4b-y	.
.	.	[1a	2cc	4f
.	.	.	.	4g
.	.	.	2cc	4a
.	.	.	.	4b-y
=114	=114	=114	=114	=114
0r	0r	2a]	2a	2cc
.	.	2g	2b-y	1dd
.	.	2f	1cc	.
.	.	2e	.	[2cc
=115	=115	=115	=115	=115
0r	0r	1d	1f	2cc]
.	.	.	.	2bni
.	.	[1c	1g	1cc
=116	=116	=116	=116	=116
0r	2r	1c]	2r	1g
.	2c	.	2e	.
.	2c	1r	2e	2g
.	2c	.	2e	2g
=117	=117	=117	=117	=117
0r	1F	0r	2f	2a
.	.	.	2a	2cc
.	2G	.	4g	2b-y
.	.	.	4f	.
.	[2A	.	4e	[2a
.	.	.	4d	.
=118	=118	=118	=118	=118
0r	2A]	0r	2c	2a]
.	2B-y	.	1d	2f
.	1G	.	.	1b-y
.	.	.	2e	.
=119	=119	=119	=119	=119
0r	[0F	2r	1f	[0a
.	.	2c	.	.
.	.	2c	2r	.
.	.	2c	2cc	.
=120	=120	=120	=120	=120
0r	0F]	4F	2cc	1a]
.	.	4G	.	.
.	.	4A	2cc	.
.	.	4B-y	.	.
.	.	2c	1f	2r
.	.	2F	.	2cc
=121	=121	=121	=121	=121
0r	0r	1c	2g	2cc
.	.	.	2.a	2cc
.	.	1d	.	1f
.	.	.	4g	.
.	.	.	4a	.
.	.	.	4b-y	.
=122	=122	=122	=122	=122
0r	0r	2c	1cc	2g
.	.	2.f	.	2.a
.	.	.	2.f	.
.	.	4e	.	4g
.	.	2d	.	4a
.	.	.	4g	4b-y
=123	=123	=123	=123	=123
0r	0r	2c	2a	2cc
.	.	4B-y	1b-y	2.dd
.	.	4c	.	.
.	.	4d	.	.
.	.	4e	.	4cc
.	.	2f	[2a	4b-y
.	.	.	.	4a
=124	=124	=124	=124	=124
1r	1r	2d	2a]	1b-y
.	.	2e	2g	.
2r	2r	1f	[1a	1a
2F	2c	.	.	.
=125	=125	=125	=125	=125
2F	2d	2r	1a]	1r
2F	2.f	2c	.	.
4BB-y	.	2d	1r	2.f
4C	4e	.	.	.
4D	2d	[2f	.	.
4E	.	.	.	4g
=126	=126	=126	=126	=126
2F	2c	4f]	0r	2a
.	.	4e	.	.
2BB-y	4B-y	2.d	.	1b-y
.	4c	.	.	.
1F	4d	.	.	.
.	4e	4c	.	.
.	2f	4B-y	.	[2a
.	.	4A	.	.
=127	=127	=127	=127	=127
1G	2d	1B-y	1r	2a]
.	2e	.	.	2g
1F	[1f	[1A	2r	1a
.	.	.	2cc	.
=128	=128	=128	=128	=128
2r	2f]	1A]	2cc	2r
2F	4e	.	2cc	2cc
.	4d	.	.	.
1F	4c	2r	4f	2cc
.	4B-y	.	4g	.
.	4A	2c	4a	2cc
.	4G	.	4b-y	.
=129	=129	=129	=129	=129
1F	2A	2c	2cc	2f
.	2c	2c	2a	2cc
1BB-y	[1B-y	2.f	4b-y	4dd
.	.	.	4a	4cc
.	.	.	4b-y	4dd
.	.	4e	4cc	4ee
=130	=130	=130	=130	=130
1BB-y	1B-]	2d	2dd	1.ff
.	.	2d	2d	.
[1C	1A	1c	2e	.
.	.	.	2f	4ee
.	.	.	.	4dd
=131	=131	=131	=131	=131
2C]	0G	2r	1.g	2ee
2BB-y	.	2d	.	1dd
1C	.	2e	.	.
.	.	2f	4f	[2cc
.	.	.	4e	.
=132	=132	=132	=132	=132
1G	2r	1g	1d	2cc]
.	2G	.	.	2bni
1r	4A	2r	2c	1cc
.	4B-y	.	.	.
.	4c	2c	2cc	.
.	4A	.	.	.
=133	=133	=133	=133	=133
1r	2B-y	2d	2b-y	2r
.	2c	2e	2g	2g
2r	1F	2.f	1a	1cc
2F	.	.	.	.
.	.	4e	.	.
=134	=134	=134	=134	=134
2G	1r	2d	1r	2b-y
2E	.	2e	.	4a
.	.	.	.	4g
1F	2r	1c	2r	2.a
.	2F	.	2a	.
.	.	.	.	4g
=135	=135	=135	=135	=135
2r	4A	2r	1cc	2f
.	4B-y	.	.	.
2F	4c	2f	.	2a
.	4A	.	.	.
2G	2B-y	2d	2b-y	1g
2E	2c	2e	2g	.
=136	=136	=136	=136	=136
1.F	4F	2.c	2.a	2f
.	4G	.	.	.
.	4A	.	.	1ff
.	4B-y	4B-y	4g	.
.	1c	2A	4f	.
.	.	.	4e	.
2C	.	2G	[2g	2ee
=137	=137	=137	=137	=137
2D	2B-y	4F	4g]	1ff
.	.	4G	4c	.
2F	2A	4A	1f	.
.	.	4B-y	.	.
1C	1G	1c	.	1r
.	.	.	2e	.
=	=	=	=	=
*M3/1	*M3/1	*M3/1	*M3/1	*M3/1
*met(3)	*met(3)	*met(3)	*met(3)	*met(3)
0.F	[0.F	0.A	[0.f	0cc
.	.	.	.	1cc
=138	=138	=138	=138	=138
0.r	0.F]	1%3r	0f]	1a
.	.	.	.	0dd
.	.	.	1r	.
=139	=139	=139	=139	=139
0.r	0.r	1r	0cc	2cc
.	.	.	.	2b-y
.	.	0f	.	2a
.	.	.	.	2g
.	.	.	1cc	[1a
=140	=140	=140	=140	=140
0.r	0.r	1f	1a	2a]
.	.	.	.	2g
.	.	1d	0dd	1a
.	.	[1g	.	1b-y
=141	=141	=141	=141	=141
1r	0c	1g]	1.cc	1g
0F	.	1.f	.	1.a
.	.	.	2b-y	.
.	1c	.	2a	.
.	.	2e	2g	2b-y
=142	=142	=142	=142	=142
1F	1A	1c	0a	1cc
1D	0d	1f	.	1.dd
1G	.	1d	1r	.
.	.	.	.	2g
=143	=143	=143	=143	=143
2C	1.c	1.e	1.cc	0g
2D	.	.	.	.
2E	.	.	.	.
2F	2d	2d	2b-y	.
1G	1e	1B-y	1g	1r
=144	=144	=144	=144	=144
0F	0f	0.c	0.a	1%3r
1r	1r	.	.	.
=145	=145	=145	=145	=145
1F	1f	0.r	0.r	1cc
1G	1d	.	.	1b-y
1E	1e	.	.	1g
=146	=146	=146	=146	=146
1F	1A	1c	1cc	1a
1r	1B-y	1d	1b-y	1r
1r	1c	1e	1g	1r
=147	=147	=147	=147	=147
1F	1A	1.f	1a	1cc
1G	0B-y	.	0g	1b-y
.	.	2c	.	.
1E	.	1e	.	1g
=148	=148	=148	=148	=148
1.F	1.A	0c	1f	1a
.	.	.	1.cc	1.f
2G	2B-y	.	.	.
2A	1c	1r	.	.
2B-y	.	.	2b-y	2g
=149	=149	=149	=149	=149
1c	1F	1f	1a	2a
.	.	.	.	2b-y
1C	1c	1e	1.g	1cc
1D	1B-y	[1d	.	[1f
.	.	.	2f	.
=150	=150	=150	=150	=150
1F	1A	1d]	0f	1f]
0C	0G	0c	.	0g
.	.	.	1e	.
=	=	=	=	=
*M2/1	*M2/1	*M2/1	*M2/1	*M2/1
*met(C|)	*met(C|)	*met(C|)	*met(C|)	*met(C|)
1.F	2.F	0c	[0fl	2.a
.	4G	.	.	4b-y
.	1A	.	.	1cc
2E	.	.	.	.
=151	=151	=151	=151	=151
2.D	1.B-y	1d	0f_	2f
.	.	.	.	2.ff
4C	.	.	.	.
[1BB-y	.	2d	.	.
.	.	.	.	4ee
.	4A	[2f	.	[2dd
.	4G	.	.	.
=152	=152	=152	=152	=152
0BB-]	1.F	4f]	0f_	4dd]
.	.	4e	.	4cc
.	.	4d	.	4b-y
.	.	4c	.	4a
.	.	1d	.	1b-y
.	2G	.	.	.
=153	=153	=153	=153	=153
00Fl	00Al	00cl	00f]	00al
==	==	==	==	==
*-	*-	*-	*-	*-
!!!system-decoration: [*]
!!!RDF**kern: i = editorial accidental
!!!RDF**kern: l = terminal long
!!!ENC: Benjamin Ory
!!!END: 2022/2/6
!!!EED: Benjamin Ory
!!!EEV: 2022/02/06
!!!YEC: Copyright 2022 Benjamin Ory, All Rights Reserved
!!!ONB: Translated from MusicXML on 2022/02/06
